src/main/webapp/libraries/zh_cn/images/menus/sms_logo.svg

<?xml version="1.0" encoding="utf-8"?>
<!-- Generator: Adobe Illustrator 19.0.0, SVG Export Plug-In . SVG Version: 6.00 Build 0)  -->
<svg version="1.1" id="图层_1" xmlns="http://www.w3.org/2000/svg" xmlns:xlink="http://www.w3.org/1999/xlink" x="0px" y="0px"
	 viewBox="0 0 275 56" style="enable-background:new 0 0 275 56;" xml:space="preserve">
<style type="text/css">
	.st0{fill-rule:evenodd;clip-rule:evenodd;fill:#00CB98;}
	.st1{fill:#999999;}
	.st2{fill:#00CB98;}
</style>
<path id="XMLID_27_" class="st0" d="M13.5,48.9c-3.2,1-6.3,2-10.2,3.3c0.5-2.1,0.8-3.5,1.1-4.9c0.4-1.5,0.9-3,1.4-4.6
	c-0.9-1.5-1.8-3-2.6-4.5C-1.8,29-0.9,19,5.7,11C17.5-3.5,42.1-3.7,54.1,10.7c8,9.6,7.8,22.6-0.5,32c-8.1,9.2-21.9,12.6-34.2,8.5
	C17.6,50.5,15.8,49.7,13.5,48.9z"/>
<g id="XMLID_59_">
	<path id="XMLID_60_" class="st1" d="M86.5,12.8c0,0.4,0.1,0.8,0.3,1.1c0.2,0.3,0.4,0.6,0.6,0.8c0.3,0.2,0.6,0.3,0.9,0.4
		c0.3,0.1,0.7,0.1,1.1,0.1c0.4,0,0.8-0.1,1.2-0.2c0.3-0.1,0.6-0.3,0.8-0.5c0.2-0.2,0.4-0.4,0.5-0.7c0.1-0.3,0.1-0.5,0.1-0.8
		c0-0.4-0.1-0.7-0.3-1c-0.2-0.2-0.4-0.4-0.7-0.6c-0.3-0.2-0.6-0.3-1-0.4s-0.7-0.2-1.1-0.3c-0.4-0.1-0.8-0.2-1.1-0.3
		c-0.4-0.1-0.7-0.3-1-0.5c-0.3-0.2-0.5-0.5-0.7-0.8c-0.2-0.3-0.3-0.7-0.3-1.2c0-0.3,0.1-0.7,0.2-1c0.1-0.3,0.4-0.6,0.6-0.9
		c0.3-0.3,0.6-0.5,1.1-0.6c0.4-0.1,0.9-0.2,1.5-0.2c0.6,0,1.1,0.1,1.5,0.2c0.4,0.2,0.8,0.4,1.1,0.7c0.3,0.3,0.5,0.6,0.6,1
		c0.1,0.4,0.2,0.8,0.2,1.2h-0.9c0-0.4-0.1-0.7-0.2-1C91.4,7.2,91.2,7,91,6.8c-0.2-0.2-0.5-0.3-0.8-0.4c-0.3-0.1-0.6-0.1-0.9-0.1
		c-0.5,0-0.9,0.1-1.2,0.2c-0.3,0.1-0.6,0.3-0.8,0.5c-0.2,0.2-0.3,0.5-0.4,0.7s-0.1,0.5,0,0.8c0.1,0.3,0.2,0.6,0.4,0.8
		c0.2,0.2,0.5,0.4,0.8,0.5s0.6,0.2,1,0.3s0.7,0.2,1.1,0.3c0.4,0.1,0.7,0.2,1.1,0.3c0.4,0.1,0.7,0.3,0.9,0.5c0.3,0.2,0.5,0.5,0.7,0.8
		c0.2,0.3,0.2,0.7,0.2,1.2c0,0.9-0.3,1.7-1,2.2s-1.5,0.8-2.7,0.8c-0.5,0-1-0.1-1.5-0.2c-0.4-0.1-0.8-0.3-1.2-0.6
		c-0.3-0.3-0.6-0.6-0.8-1c-0.2-0.4-0.3-0.9-0.3-1.4H86.5z"/>
	<path id="XMLID_62_" class="st1" d="M94.7,5.8h1v6c0,1.3,0.2,2.2,0.7,2.7c0.5,0.6,1.2,0.8,2.3,0.8c0.5,0,1-0.1,1.4-0.2
		c0.4-0.1,0.7-0.4,0.9-0.7c0.2-0.3,0.4-0.7,0.5-1.1c0.1-0.4,0.2-1,0.2-1.6v-6h1V12c0,1.3-0.3,2.3-1,3c-0.6,0.7-1.6,1-2.9,1
		c-1.3,0-2.3-0.4-2.9-1.1c-0.6-0.7-1-1.7-1-3V5.8z"/>
	<path id="XMLID_64_" class="st1" d="M104.8,15.8V5.8h3.6c0.6,0,1.1,0.1,1.5,0.2c0.4,0.1,0.8,0.3,1,0.5s0.5,0.5,0.6,0.8
		c0.1,0.3,0.2,0.7,0.2,1c0,0.4,0,0.7-0.1,0.9s-0.2,0.5-0.4,0.6c-0.1,0.2-0.3,0.3-0.5,0.4c-0.2,0.1-0.4,0.2-0.6,0.2v0
		c0.7,0.1,1.2,0.4,1.6,0.8c0.3,0.4,0.5,1,0.5,1.7c0,0.5-0.1,1-0.2,1.3c-0.2,0.4-0.4,0.7-0.7,0.9c-0.3,0.2-0.6,0.4-1,0.5
		c-0.4,0.1-0.8,0.1-1.3,0.1H104.8z M105.7,10.2h2.4c0.5,0,0.9,0,1.2-0.1c0.3-0.1,0.6-0.2,0.8-0.4c0.2-0.2,0.4-0.4,0.4-0.6
		c0.1-0.2,0.1-0.5,0.1-0.8c0-0.3-0.1-0.6-0.2-0.8c-0.1-0.2-0.3-0.4-0.5-0.5s-0.5-0.2-0.9-0.3c-0.4-0.1-0.8-0.1-1.3-0.1h-2.2V10.2z
		 M105.7,15h2.4c0.5,0,1,0,1.4-0.1c0.4,0,0.7-0.1,1-0.3s0.4-0.4,0.6-0.6c0.1-0.3,0.2-0.6,0.2-1.1c0-0.4-0.1-0.8-0.2-1
		s-0.3-0.5-0.6-0.6c-0.3-0.1-0.6-0.2-0.9-0.3c-0.4-0.1-0.8-0.1-1.2-0.1h-2.5V15z"/>
	<path id="XMLID_68_" class="st1" d="M114.1,15.8V5.8h1.5l3.3,8.9h0l3.2-8.9h1.4v10.1h-1v-9h0l-3.3,9h-0.9l-3.3-9h0v9H114.1z"/>
	<path id="XMLID_70_" class="st1" d="M124.9,15.8l4-10.1h1.1l3.9,10.1h-1l-1.2-3.2H127l-1.2,3.2H124.9z M127.4,11.9h3.9l-2-5.3
		L127.4,11.9z"/>
	<path id="XMLID_73_" class="st1" d="M135.5,15.8V5.8h1v10.1H135.5z"/>
	<path id="XMLID_75_" class="st1" d="M139,15.8V5.8h1V15h5.4v0.8H139z"/>
</g>
<g id="XMLID_29_">
	<path id="XMLID_31_" class="st2" d="M88.6,24.7l7.3,0v1.8H92c0.1,1,0.1,2.1,0.1,3.2S92,32,91.9,33.2H96V35h-4.3
		c-0.1,1.1-0.2,2.1-0.3,2.9c0.9,1,1.7,2.1,2.6,3.2c0.9,1.1,1.8,2.3,2.6,3.5l-1.8,0.9c-0.7-1-1.3-1.9-2-2.8c-0.6-0.9-1.3-1.8-1.9-2.6
		c-0.7,3-2.4,6-5,9.1l-1.8-1c1.9-2.2,3.2-4.3,4.1-6.2c0.4-1,0.8-2.1,1-3.2c0.3-1.2,0.5-2.4,0.6-3.7h-5.5v-1.8H90
		c0.1-1.1,0.1-2.2,0.1-3.3s0-2.3,0-3.4h-2.1c-0.2,0.8-0.4,1.6-0.7,2.4c-0.3,0.8-0.6,1.7-1,2.7L84.5,31c0.7-1.7,1.3-3.4,1.8-5.1
		c0.5-1.6,0.9-3.2,1.3-4.8l1.9,0.3L88.6,24.7z M105,46.6c0.7-1.4,1.4-2.7,2-4.1c0.6-1.3,1.2-2.7,1.7-4.1l1.9,0.6
		c-0.5,1.3-1.1,2.6-1.7,3.8s-1.2,2.5-1.8,3.7h5.3v1.7H95.2v-1.7H105z M112.1,24.8H96.4v-1.8h15.7V24.8z M111.3,37.4h-14v-9.5h14
		V37.4z M100.9,46c-0.7-2.2-1.5-4.5-2.4-6.8l1.8-0.5c1.1,2.5,1.9,4.8,2.5,7L100.9,46z M109.4,35.5v-5.9H99.3v5.9H109.4z"/>
	<path id="XMLID_38_" class="st2" d="M120.7,32c-0.4,0.7-0.8,1.5-1.3,2.2c-0.5,0.8-1.1,1.6-1.6,2.5l-1.6-1c3.1-4.4,5.5-9.3,7-14.8
		l1.9,0.5c-0.8,2.4-1.6,4.6-2.5,6.6v21.1h-1.9V32z M134.1,24.9l-1.9-3.3l2-0.7c0.9,1.5,1.6,2.8,2.2,4h8.1v1.8h-18.9v-1.8H134.1z
		 M143.1,31.5h-16.6v-1.8h16.6V31.5z M143.1,36.2h-16.5v-1.8h16.5V36.2z M129.1,47.3v1.9h-1.9V39h15.4v10.1h-1.9v-1.8H129.1z
		 M140.7,45.4V41h-11.6v4.4H140.7z"/>
	<path id="XMLID_45_" class="st2" d="M146.3,49.9l11.8-27.5h1.8l-11.9,27.5H146.3z"/>
	<path id="XMLID_47_" class="st2" d="M171.5,43.3l-3,2.5c-0.3,0.3-0.6,0.6-0.9,0.9c-0.3,0.4-0.7,0.8-1,1.3l-1.7-1.4
		c0.4-0.4,0.6-0.7,0.8-1c0.2-0.3,0.2-0.7,0.2-1.3V32.2h-4v-1.8h5.9v13.5l2.8-2.5L171.5,43.3z M167.7,28c-1.5-2-3.1-3.8-4.8-5.4
		l1.5-1.2c0.7,0.7,1.5,1.5,2.3,2.4c0.8,0.9,1.7,1.9,2.7,3L167.7,28z M176.9,24.5H171v-1.8h18.4v1.8h-10.5l-0.5,3.3h8.6v6.3h3V36
		h-19.6v-1.8h4.9l0.7-4.5h-4v-1.8h4.3L176.9,24.5z M174.4,47.1v2.1h-1.9V38.4h15.4v10.4h-1.9v-1.7H174.4z M185.9,45.3v-4.9h-11.5
		v4.9H185.9z M178.1,29.7l-0.7,4.5h7.7v-4.5H178.1z"/>
	<path id="XMLID_54_" class="st2" d="M207.6,23.8l-1.3-2.7l1.8-0.6l1.6,3.3H221v1.8h-6.3l1.4,0.7l-2.3,3.9h8.7V32h-28.7v-1.8h8.5
		l-2-3.8l1.7-0.7l2.5,4.5h7.1c0.5-0.8,0.9-1.6,1.3-2.4c0.4-0.8,0.8-1.5,1.1-2.2h-18.3v-1.8H207.6z M199.9,47.7v1.7H198V34.9h20.4
		v14.5h-1.9v-1.7H199.9z M199.9,40.4h16.5v-3.6h-16.5V40.4z M216.4,42.2h-16.5v3.6h16.5V42.2z"/>
</g>
</svg>

<?xml version="1.0" encoding="UTF-8"?>
<!-- Created with EazyDraw for Mac ( http://www.eazydraw.com/ ) -->

<svg
    version="1.1"
    xmlns:dc="http://purl.org/dc/elements/1.1/"
    xmlns:cc="http://creativecommons.org/ns#"
    xmlns:rdf="http://www.w3.org/1999/02/22-rdf-syntax-ns#"
    xmlns:svg="http://www.w3.org/2000/svg"
    xmlns:xlink="http://www.w3.org/1999/xlink"
    xmlns="http://www.w3.org/2000/svg"
    width="275"
    height="56"
    viewBox="0, 0, 275, 56"
    preserveAspectRatio="none"
    id="svg2">
   <defs
       id="defs_F79901CA"/>
   <metadata
       id="metadata7">
      <rdf:RDF>
         <cc:Work
             rdf:about="">
            <dc:format>image/svg+xml</dc:format>
            <dc:type rdf:resource="http://purl.org/dc/dcmitype/StillImage"/>
            <dc:title></dc:title>
         </cc:Work>
      </rdf:RDF>
   </metadata>
   <g
       id="layer_Paper"
       style="fill:#000000;fill-opacity:1;stroke:#000000;stroke-opacity:1;fill-rule:nonzero;stroke-linecap:butt;stroke-linejoin:miter;stroke-width:1;stroke-miterlimit:4">
      <path
          style="fill:#19C386;stroke:none"
          id="6FF1A99A"
          d="M13.5,48.9 C10.3,49.9 7.2,50.9 3.3,52.2 C3.8,50.1 4.1,48.7 4.4,47.3 C4.8,45.8 5.3,44.3 5.8,42.7 C4.9,41.2 4,39.7 3.2,38.2 C-1.8,29 -0.9,19 5.7,11 C17.5,-3.5 42.1,-3.7 54.1,10.7 C62.1,20.3 61.9,33.3 53.6,42.7
C45.5,51.9 31.7,55.3 19.4,51.2 C17.6,50.5 15.8,49.7 13.5,48.9 z"/>
      <path
          style="fill:#19C386;stroke:none"
          id="FF02A99A"
          d="M88.6,24.7 L95.9,24.7 L95.9,26.5 L92,26.5 C92.1,27.5 92.1,28.6 92.1,29.7 C92.1,30.8 92,32 91.9,33.2 L96,33.2 L96,35 L91.7,35 C91.6,36.1 91.5,37.1 91.4,37.9 C92.3,38.9 93.1,40 94,41.1 C94.9,42.2 95.8,43.4 96.6,44.6
L94.8,45.5 C94.1,44.5 93.5,43.6 92.8,42.7 C92.2,41.8 91.5,40.9 90.9,40.1 C90.2,43.1 88.5,46.1 85.9,49.2 L84.1,48.2 C86,46 87.3,43.9 88.2,42 C88.6,41 89,39.9 89.2,38.8 C89.5,37.6 89.7,36.4 89.8,35.1 L84.3,35.1
L84.3,33.3 L90,33.3 C90.1,32.2 90.1,31.1 90.1,30 C90.1,28.9 90.1,27.7 90.1,26.6 L88,26.6 C87.8,27.4 87.6,28.2 87.3,29 C87,29.8 86.7,30.7 86.3,31.7 L84.5,31 C85.2,29.3 85.8,27.6 86.3,25.9 C86.8,24.3 87.2,22.7 87.6,21.1
L89.5,21.4 L88.6,24.7 z M105,46.6 C105.7,45.2 106.4,43.9 107,42.5 C107.6,41.2 108.2,39.8 108.7,38.4 L110.6,39 C110.1,40.3 109.5,41.6 108.9,42.8 C108.3,44 107.7,45.3 107.1,46.5 L112.4,46.5 L112.4,48.2 L95.2,48.2
L95.2,46.5 L105,46.5 z M112.1,24.8 L96.4,24.8 L96.4,23 L112.1,23 L112.1,24.8 z M111.3,37.4 L97.3,37.4 L97.3,27.9 L111.3,27.9 L111.3,37.4 z M100.9,46 C100.2,43.8 99.4,41.5 98.5,39.2 L100.3,38.7 C101.4,41.2 102.2,43.5 102.8,45.7
L100.9,46 z M109.4,35.5 L109.4,29.6 L99.3,29.6 L99.3,35.5 L109.4,35.5 z"/>
      <path
          style="fill:#19C386;stroke:none"
          id="8112A99A"
          d="M120.7,32 C120.3,32.7 119.9,33.5 119.4,34.2 C118.9,35 118.3,35.8 117.8,36.7 L116.2,35.7 C119.3,31.3 121.7,26.4 123.2,20.9 L125.1,21.4 C124.3,23.8 123.5,26 122.6,28 L122.6,49.1 L120.7,49.1 L120.7,32 z M134.1,24.9
L132.2,21.6 L134.2,20.9 C135.1,22.4 135.8,23.7 136.4,24.9 L144.5,24.9 L144.5,26.7 L125.6,26.7 L125.6,24.9 L134.1,24.9 z M143.1,31.5 L126.5,31.5 L126.5,29.7 L143.1,29.7 L143.1,31.5 z M143.1,36.2 L126.6,36.2
L126.6,34.4 L143.1,34.4 L143.1,36.2 z M129.1,47.3 L129.1,49.2 L127.2,49.2 L127.2,39 L142.6,39 L142.6,49.1 L140.7,49.1 L140.7,47.3 L129.1,47.3 z M140.7,45.4 L140.7,41 L129.1,41 L129.1,45.4 L140.7,45.4 z"/>
   </g>
</svg>
